X: 28
T: I Have Conquered Them
C: Teton Sioux band 1911-1914
N: Derived from sioux028.krn
O: South Dakota, U.S.A.
N: Teton Sioux Music by Frances Densmore, 1918
Z: transcribed to **kern format by Craig Sapp
L: 1/16
M: 3/4
Q: 1/4=58
K: G clef=bass
%%linebreak <none>
G4G E E2E4 [I:setbarnb 2]| 
F E E2 E B, B,2B,4 | 
F4F E E2E4 | 
F E E2 E B, B,2 B,3 A, | 
B, B, B,2 B, A, A,2 A,3 G, | 
A, A, A,2 A, G, G,2 G,3 E, | 
G,4G, E, E,2E,4 ||  
[M:2/4]G, G, G,2 G, E, E,2 | 
E,2> B,,2 E, E, E,2 | 
G, G, G, E, G, E, E,2 | 
E, E, E, D, E, D, E,2 | 
B,2 B,2 E2 E2 | 
(E B,) B,2 (B,7/ A,/) ||  
[M:3/4]B,2 B,2 B,2 A,2 (A,3 G,) | 
A,2 A,2 (A, G,) G,2G,4 | 
G,2 G,2 (G, E,) E,2E,4 ||  
[M:2/4]G, G, G,2 G, E, E,2 | 
E, E, E, B,, E, E, E,2 | 
G,2 G, E, G, E, E,2 | 
E,2 E,2 E, D, E,2 ||[1 
[M:3/4]B,4E B, B,2 B,3 A, :|][2 
E,2 E,2 E, D, E,2 [I:setbarnb 22]| 
E,4z4 |]  



